lib/brands/icons/slack.svg

<svg xmlns="http://www.w3.org/2000/svg" fill="none" aria-hidden="true" viewBox="0 0 48 48"><g id="slack-Icon"><g id="slack"><path id="vector" fill="#2EB67D" d="M38.5389 22.6151C40.4505 22.6151 42.0002 21.0654 42.0002 19.1539V19.1539C42.0002 17.2423 40.4504 15.6926 38.5388 15.6926V15.6926C36.627 15.6926 35.0771 17.2424 35.0771 19.1542V22.6151H38.5389ZM28.8463 22.6151C30.7581 22.6151 32.3078 21.0653 32.3078 19.1536V9.46184C32.3078 7.55009 30.7581 6.00031 28.8463 6.00031V6.00031C26.9345 6.00031 25.3848 7.55009 25.3848 9.46184V19.1536C25.3848 21.0653 26.9345 22.6151 28.8463 22.6151V22.6151Z"/><path id="vector_2" fill="#E01E5A" d="M9.46109 25.3849C7.5495 25.3849 5.99985 26.9346 5.99985 28.8461V28.8461C5.99985 30.7577 7.54965 32.3074 9.46124 32.3074V32.3074C11.373 32.3074 12.9229 30.7576 12.9229 28.8458V25.3849H9.46109ZM19.1537 25.3849C17.2419 25.3849 15.6922 26.9347 15.6922 28.8464V38.5382C15.6922 40.4499 17.2419 41.9997 19.1537 41.9997V41.9997C21.0655 41.9997 22.6152 40.4499 22.6152 38.5382V28.8464C22.6152 26.9347 21.0655 25.3849 19.1537 25.3849V25.3849Z"/><path id="vector_3" fill="#ECB22E" d="M25.3852 38.5388C25.3852 40.4504 26.9349 42 28.8464 42V42C30.758 42 32.3077 40.4502 32.3077 38.5386V38.5386C32.3077 36.6269 30.7579 35.077 28.8461 35.077L25.3852 35.077L25.3852 38.5388ZM25.3852 28.8462C25.3852 30.7579 26.935 32.3077 28.8467 32.3077L38.5385 32.3077C40.4502 32.3077 42 30.7579 42 28.8462V28.8462C42 26.9344 40.4502 25.3846 38.5385 25.3846L28.8467 25.3846C26.935 25.3846 25.3852 26.9344 25.3852 28.8462V28.8462Z"/><path id="vector_4" fill="#36C5F0" d="M22.6148 9.46121C22.6148 7.54962 21.0651 5.99997 19.1536 5.99997V5.99997C17.242 5.99997 15.6923 7.54977 15.6923 9.46136V9.46136C15.6923 11.3731 17.2421 12.923 19.1539 12.923L22.6148 12.923L22.6148 9.46121ZM22.6148 19.1538C22.6148 17.2421 21.065 15.6923 19.1533 15.6923L9.46154 15.6923C7.54978 15.6923 6 17.2421 6 19.1538V19.1538C6 21.0656 7.54978 22.6154 9.46154 22.6154L19.1533 22.6154C21.065 22.6154 22.6148 21.0656 22.6148 19.1538V19.1538Z"/></g></g></svg>

<svg xmlns="http://www.w3.org/2000/svg" fill="none" aria-hidden="true" viewBox="0 0 48 48"><path fill="#2EB67D" d="M38.539 22.615a3.461 3.461 0 0 0 0-6.923 3.462 3.462 0 0 0-3.462 3.462v3.461h3.462Zm-9.693 0a3.462 3.462 0 0 0 3.462-3.461V9.462a3.462 3.462 0 0 0-6.923 0v9.692a3.462 3.462 0 0 0 3.461 3.461Z"/><path fill="#E01E5A" d="M9.461 25.385a3.461 3.461 0 0 0 0 6.923 3.462 3.462 0 0 0 3.462-3.462v-3.461H9.461Zm9.693 0a3.462 3.462 0 0 0-3.462 3.461v9.692a3.462 3.462 0 0 0 6.923 0v-9.692a3.462 3.462 0 0 0-3.461-3.461Z"/><path fill="#ECB22E" d="M25.385 38.539a3.461 3.461 0 0 0 6.922 0 3.462 3.462 0 0 0-3.461-3.462h-3.461v3.462Zm0-9.693a3.461 3.461 0 0 0 3.461 3.462h9.692a3.462 3.462 0 1 0 0-6.923h-9.691a3.462 3.462 0 0 0-3.462 3.461Z"/><path fill="#36C5F0" d="M22.615 9.461a3.461 3.461 0 0 0-6.922 0 3.462 3.462 0 0 0 3.461 3.462h3.461V9.461Zm0 9.693a3.461 3.461 0 0 0-3.461-3.462H9.462a3.462 3.462 0 0 0 0 6.923h9.692a3.462 3.462 0 0 0 3.461-3.461Z"/></svg>
